X: 12680
T: Fath Mo Bhuartha
R: barndance
M: 4/4
K: Gmajor
dc|B>A G>A B3d|g>a a2 g<f g>d|B3c d>B A2|B3A G3{AGA}F|G4 G2 dc|
B>A G>A B3d|g>a a2 g<f g>d|B3c d>B A2|B3A G3{AGA}F|G4 G2 Bc||
(3def|g2 a3g (3fde|=f2 g3a g^f|d2 cA G{AGA}F/G/ Ad/c/|BA GA B3d|
g>a a2 g<f g>d|B3c d>B A2|B3A G3{AGA}F|G4 G4||

